www/assets/icons/u_turn_right.svg

<svg xmlns="http://www.w3.org/2000/svg" width="24" height="24" viewBox="0 0 24 24" fill='currentColor'><path d="M4.5 9v12h2V9c0-2.21 1.79-4 4-4s4 1.79 4 4v4.17l-1.59-1.59L11.5 13l4 4 4-4-1.41-1.41-1.59 1.58V9c0-3.31-2.69-6-6-6s-6 2.69-6 6"/></svg>

<svg width="24" height="24" viewBox="0 0 24 24" xmlns="http://www.w3.org/2000/svg" fill='currentColor'><path d="M4.5 9V21H6.5V9C6.5 6.79 8.29 5 10.5 5C12.71 5 14.5 6.79 14.5 9V13.17L12.91 11.58L11.5 13L15.5 17L19.5 13L18.09 11.59L16.5 13.17V9C16.5 5.69 13.81 3 10.5 3C7.19 3 4.5 5.69 4.5 9Z"/></svg>
